src/images/svg/symbols/markets-stocks-and-indices/american-stocks/stocks-zoom-video-communications-inc.svg

<svg width="32" height="32" viewBox="0 0 32 32" fill="none" xmlns="http://www.w3.org/2000/svg">
<path d="M0 16C0 7.16344 7.16344 0 16 0C24.8366 0 32 7.16344 32 16C32 24.8366 24.8366 32 16 32C7.16344 32 0 24.8366 0 16Z" fill="#2D8CFF"/>
<path d="M5.07865 18.6806L5.34831 18.694H9.39326L9.37978 18.4244C9.34607 17.9794 9.02921 17.6558 8.58427 17.6289L8.31461 17.6154H5.88764L9.1236 14.3794L9.11011 14.1098C9.08989 13.6648 8.75955 13.3345 8.31461 13.3143L8.04494 13.3008H4L4.01348 13.5704C4.04719 14.0086 4.37079 14.339 4.80899 14.3659L5.07865 14.3794H7.50562L4.26966 17.6154L4.28315 17.8851C4.31011 18.33 4.63371 18.6536 5.07865 18.6806Z" fill="white"/>
<path fill-rule="evenodd" clip-rule="evenodd" d="M11.8202 13.3008C12.5146 13.3008 13.2022 13.5637 13.7281 14.0895C14.7798 15.1412 14.7798 16.8536 13.7281 17.9053C12.6697 18.957 10.964 18.957 9.91236 17.9053C8.86067 16.8468 8.86067 15.1412 9.91236 14.0895C10.4382 13.5637 11.1326 13.3008 11.8202 13.3008ZM10.6809 17.1435C11.3079 17.7772 12.3326 17.7772 12.9663 17.1435C13.5933 16.5098 13.5933 15.4851 12.9663 14.8581C12.3393 14.2244 11.3146 14.2244 10.6809 14.8581C10.0472 15.4851 10.0472 16.5098 10.6809 17.1435Z" fill="white"/>
<path fill-rule="evenodd" clip-rule="evenodd" d="M17.4831 13.3008C18.1775 13.3008 18.8652 13.5637 19.391 14.0895C20.4427 15.1412 20.4427 16.8536 19.391 17.9053C18.3326 18.957 16.627 18.957 15.5753 17.9053C14.5236 16.8468 14.5236 15.1412 15.5753 14.0895C16.1011 13.5637 16.7955 13.3008 17.4831 13.3008ZM16.3438 17.1435C16.9708 17.7772 17.9955 17.7772 18.6292 17.1435C19.2562 16.5098 19.2562 15.4851 18.6292 14.8581C18.0022 14.2244 16.9775 14.2244 16.3438 14.8581C15.7101 15.4851 15.7101 16.5098 16.3438 17.1435Z" fill="white"/>
<path d="M23.6719 15.4581C23.6584 15.2558 23.6315 15.0806 23.5371 14.9188C23.3551 14.5952 23.0045 14.3794 22.6067 14.3794C22.209 14.3794 21.8652 14.5952 21.6764 14.9188C21.582 15.0738 21.5551 15.2558 21.5416 15.4581L21.5281 15.7277V17.6154L21.5146 17.8851C21.4944 18.33 21.1708 18.6536 20.7191 18.6806L20.4494 18.694V13.3008C20.7191 13.3008 21.191 13.4356 21.4 13.6716C21.7438 13.4356 22.1618 13.3008 22.6067 13.3008C23.2539 13.3008 23.827 13.5839 24.2247 14.0289C24.6225 13.5839 25.1955 13.3008 25.8427 13.3008C27.036 13.3008 28 14.2648 28 15.4581V18.694L27.7303 18.6806C27.2854 18.6536 26.9618 18.33 26.9348 17.8851L26.9213 17.6154V15.7277L26.9079 15.4581C26.9011 15.2626 26.8742 15.0806 26.7798 14.9188C26.591 14.5952 26.2404 14.3794 25.8427 14.3794C25.4449 14.3794 25.1011 14.5884 24.9124 14.912C24.818 15.0738 24.791 15.2558 24.7775 15.4581L24.764 15.7277V18.694L24.4944 18.6806C24.0494 18.6536 23.7258 18.3233 23.6989 17.8851L23.6854 17.6154V15.7277L23.6719 15.4581Z" fill="white"/>
</svg>

<svg width="32" height="32" fill="none" xmlns="http://www.w3.org/2000/svg"><path d="M0 16C0 7.163 7.163 0 16 0s16 7.163 16 16-7.163 16-16 16S0 24.837 0 16Z" fill="#2D8CFF"/><path d="m5.079 18.68.27.014h4.044l-.013-.27c-.034-.445-.35-.768-.796-.795l-.27-.014H5.889l3.236-3.236-.014-.27a.815.815 0 0 0-.795-.795l-.27-.013H4l.013.27a.84.84 0 0 0 .796.795l.27.013h2.427L4.27 17.615l.013.27c.027.445.35.769.796.796Z" fill="#fff"/><path fill-rule="evenodd" clip-rule="evenodd" d="M11.82 13.3c.695 0 1.382.264 1.908.79a2.702 2.702 0 0 1 0 3.815 2.702 2.702 0 0 1-3.816 0 2.696 2.696 0 0 1 1.908-4.604Zm-1.14 3.843a1.611 1.611 0 0 0 2.286 0 1.623 1.623 0 0 0 0-2.285 1.611 1.611 0 0 0-2.285 0 1.611 1.611 0 0 0 0 2.285Z" fill="#fff"/><path fill-rule="evenodd" clip-rule="evenodd" d="M17.483 13.3c.694 0 1.382.264 1.908.79a2.702 2.702 0 0 1 0 3.815 2.702 2.702 0 0 1-3.816 0 2.695 2.695 0 0 1 1.908-4.604Zm-1.14 3.843a1.611 1.611 0 0 0 2.286 0 1.623 1.623 0 0 0 0-2.285 1.611 1.611 0 0 0-2.285 0 1.611 1.611 0 0 0 0 2.285Z" fill="#fff"/><path d="M23.672 15.458c-.014-.202-.04-.377-.135-.54a1.074 1.074 0 0 0-1.86 0c-.095.156-.122.338-.135.54l-.014.27v1.887l-.013.27c-.02.445-.344.769-.796.796l-.27.013v-5.393c.27 0 .742.135.951.37a2.16 2.16 0 0 1 2.825.357A2.16 2.16 0 0 1 28 15.459v3.236l-.27-.013a.825.825 0 0 1-.795-.796l-.014-.27v-1.887l-.013-.27c-.007-.195-.034-.377-.128-.54a1.085 1.085 0 0 0-.937-.539c-.398 0-.742.21-.93.533-.095.162-.122.344-.136.546l-.013.27v2.966l-.27-.013a.83.83 0 0 1-.795-.796l-.014-.27v-1.887l-.013-.27Z" fill="#fff"/></svg>
